assets/images/MCCGroupIcons/MCC-Mail.svg

<svg xmlns="http://www.w3.org/2000/svg" viewBox="0 0 40 40"><style type="text/css">.st0{fill-rule:evenodd;clip-rule:evenodd}</style><path d="M0 29L1.01054e-06 13.2871C9.19619e-07 12.2471 1.19609 11.6619 2.0172 12.3003L16.9312 24.9447C18.7364 26.3481 21.2636 26.3481 23.0688 24.9447L37.9828 12.3003C38.8039 11.6619 40 12.2471 40 13.2871L40 29C40 31.7614 37.7614 34 35 34L5 34C2.23858 34 2.41411e-07 31.7614 0 29Z" class="st0"/><path d="M18.5467 19.4728L2.47189 6.30004C1.56324 5.55543 2.05463 4 3.19851 4H36.8015C37.9454 4 38.4368 5.55544 37.5281 6.30004L21.4532 19.4728C20.5954 20.1757 19.4045 20.1757 18.5467 19.4728Z" class="st0"/></svg>

<svg xmlns="http://www.w3.org/2000/svg" viewBox="0 0 40 40"><style>.st0{fill-rule:evenodd;clip-rule:evenodd}</style><path d="M0 29V13.287c0-1.04 1.196-1.625 2.017-.987l14.914 12.645a5 5 0 0 0 6.138 0L37.983 12.3c.82-.638 2.017-.053 2.017.987V29a5 5 0 0 1-5 5H5a5 5 0 0 1-5-5" class="st0"/><path d="M18.547 19.473 2.472 6.3c-.909-.745-.417-2.3.727-2.3h33.603c1.143 0 1.635 1.555.726 2.3L21.453 19.473a2.27 2.27 0 0 1-2.906 0" class="st0"/></svg>
